src/components/LogoGrid/logos/wvi.svg

<svg height="110" viewBox="0 0 532 110" width="532" xmlns="http://www.w3.org/2000/svg" xmlns:xlink="http://www.w3.org/1999/xlink"><mask id="a" fill="#fff"><path d="m.06.335h522.523v100.741965h-522.523z" fill="#fff" fill-rule="evenodd"/></mask><g fill="none" fill-rule="evenodd"><path d="m350.902.831c-.166-.022-.297-.131-.297-.296 0-.164.133-.295.297-.295h180.815v109.76c-41.478-58.577-106.315-99.368-180.815-109.169" fill="#ff6b00"/><g transform="translate(0 8)"><path d="m501.875 56.185c1.224-18.068.831-28.619 3.923-31.485 2.861-2.65 8.021-3.371 16.785-4.009-19.242-2.222-18.776-1.652-20.708-20.356-1.931 18.704-1.465 18.134-20.708 20.356 8.765.638 13.925 1.359 16.785 4.009 3.093 2.866 2.7 13.417 3.923 31.485" fill="#fff" mask="url(#a)"/><path d="m203.043 68.706v23.584c-2.802 2.388-5.401 4.156-9.349 4.156-4.779 0-11.012-4.053-11.012-15.792 0-12.675 9.869-21.816 20.361-11.948zm190.594 11.742c0 9.037-3.013 16.205-9.765 16.205-6.753 0-9.766-7.168-9.766-16.205 0-9.04 3.013-16.21 9.766-16.21 6.752 0 9.765 7.17 9.765 16.21zm-30.958 0c0 10.907 8.101 19.946 21.193 19.946 13.088 0 21.192-9.039 21.192-19.946 0-10.909-8.104-19.948-21.192-19.948-13.092 0-21.193 9.039-21.193 19.948zm-259.52 0c0 9.037-3.013 16.205-9.765 16.205-6.753 0-9.766-7.168-9.766-16.205 0-9.04 3.013-16.21 9.766-16.21 6.752 0 9.765 7.17 9.765 16.21zm-59.111-27.946h-6.13l-12.259 31.683-13.089-36.461h-12.57l19.427 52.15h5.922l12.569-32.205 12.465 32.205h5.924l19.425-52.045h-5.92l-13.611 36.356zm408.424 47.473v-21.503c0-14.545-11.115-18.18-17.657-18.18-4.677 0-8.626 1.766-12.573 4.466l-.211-.104v-3.741h-9.97v39.062h10.802v-31.474c3.221-2.809 6.34-3.952 9.039-3.952 5.715 0 9.662 5.508 9.662 11.532v23.894zm-191.317 0h4.573l22.855-52.463h-5.923l-15.895 36.882-15.687-36.882h-13.088zm-70.473.833c5.09 0 9.246-1.766 12.985-4.677l.208.106v3.738h9.973v-59.736h-10.805v23.794c-3.012-2.287-7.582-3.741-12.257-3.741-5.922 0-20.05 3.635-20.05 20.778 0 12.778 11.219 19.738 19.946 19.738zm117.506-29.191c-1.038 14.856 20.779 11.323 20.156 20.362-.314 3.632-3.43 4.883-6.753 4.777-5.404-.418-8.727-3.534-11.636-6.962l-3.219 7.168c4.359 2.495 9.139 3.742 13.295 4.053 9.351.622 17.249-3.432 17.764-12.466.935-14.023-21.608-12.259-21.191-19.426.209-3.118 3.737-4.674 7.374-4.469 3.742.311 6.651 2.389 9.87 5.299l2.911-6.442c-4.052-1.765-7.896-2.598-11.324-2.909-10.077-.622-16.83 4.676-17.247 11.015zm-10.776-28.362c-3.223 0-5.715 2.495-5.715 5.715 0 3.217 2.492 5.712 5.715 5.712 3.221 0 5.713-2.495 5.713-5.712 0-3.22-2.492-5.715-5.713-5.715zm-6.751 56.721h10.803v-39.063h-10.803zm-218.46-19.528c0 10.907 8.101 19.946 21.193 19.946 13.088 0 21.192-9.039 21.192-19.946 0-10.909-8.104-19.948-21.192-19.948-13.092 0-21.193 9.039-21.193 19.948zm81.73 19.527h10.805v-59.736h-10.805zm-32.929-39.062v39.062h10.801v-31.789c3.639-3.115 6.235-2.077 13.404 3.846l4.363-9.767c-2.182-.934-4.987-1.973-9.039-1.973-4.051 0-7.065 1.973-8.518 3.741l-.522.621-.103-.105.103-3.636z" fill="#231f20" mask="url(#a)"/></g><g fill="#231f20"><path d="m344.796 107.976h10.803v-39.063h-10.803z"/><path d="m350.547 51.255c-3.223 0-5.715 2.495-5.715 5.715 0 3.217 2.492 5.712 5.715 5.712 3.221 0 5.713-2.495 5.713-5.712 0-3.22-2.492-5.715-5.713-5.715"/></g></g></svg>

<?xml version="1.0" encoding="UTF-8"?>
<svg viewBox="0 0 532 110" version="1.1" xmlns="http://www.w3.org/2000/svg" xmlns:xlink="http://www.w3.org/1999/xlink">
    <defs>
        <polygon id="path-1" points="0.06 0.335 522.583 0.335 522.583 101.076965 0.06 101.076965"></polygon>
        <polygon id="path-3" points="0.06 0.335 522.583 0.335 522.583 101.076965 0.06 101.076965"></polygon>
    </defs>
    <g id="Page-1" stroke="none" stroke-width="1" fill="none" fill-rule="evenodd">
        <g id="wvi">
            <path d="M350.902,0.831 C350.736,0.809 350.605,0.7 350.605,0.535 C350.605,0.371 350.738,0.24 350.902,0.24 L531.717,0.24 L531.717,110 C490.239,51.423 425.402,10.632 350.902,0.831" id="Path" fill="#FF6B00" fill-rule="nonzero"></path>
            <g id="Group" transform="translate(0.000000, 8.000000)">
                <g id="Clipped">
                    <mask id="mask-2" fill="white">
                        <use xlink:href="#path-1"></use>
                    </mask>
                    <g id="Path"></g>
                    <path d="M501.875,56.185 C503.099,38.117 502.706,27.566 505.798,24.7 C508.659,22.05 513.819,21.329 522.583,20.691 C503.341,18.469 503.807,19.039 501.875,0.335 C499.944,19.039 500.41,18.469 481.167,20.691 C489.932,21.329 495.092,22.05 497.952,24.7 C501.045,27.566 500.652,38.117 501.875,56.185" id="Path" fill="#FFFFFF" fill-rule="nonzero" mask="url(#mask-2)"></path>
                </g>
                <g id="Clipped">
                    <mask id="mask-4" fill="white">
                        <use xlink:href="#path-3"></use>
                    </mask>
                    <g id="Path"></g>
                    <path d="M203.043,68.706 L203.043,92.29 C200.241,94.678 197.642,96.446 193.694,96.446 C188.915,96.446 182.682,92.393 182.682,80.654 C182.682,67.979 192.551,58.838 203.043,68.706 L203.043,68.706 Z M393.637,80.448 C393.637,89.485 390.624,96.653 383.872,96.653 C377.119,96.653 374.106,89.485 374.106,80.448 C374.106,71.408 377.119,64.238 383.872,64.238 C390.624,64.238 393.637,71.408 393.637,80.448 Z M362.679,80.448 C362.679,91.355 370.78,100.394 383.872,100.394 C396.96,100.394 405.064,91.355 405.064,80.448 C405.064,69.539 396.96,60.5 383.872,60.5 C370.78,60.5 362.679,69.539 362.679,80.448 Z M103.159,80.448 C103.159,89.485 100.146,96.653 93.394,96.653 C86.641,96.653 83.628,89.485 83.628,80.448 C83.628,71.408 86.641,64.238 93.394,64.238 C100.146,64.238 103.159,71.408 103.159,80.448 Z M44.048,52.502 L37.918,52.502 L25.659,84.185 L12.57,47.724 L-8.8817842e-15,47.724 L19.427,99.874 L25.349,99.874 L37.918,67.669 L50.383,99.874 L56.307,99.874 L75.732,47.829 L69.812,47.829 L56.201,84.185 L44.048,52.502 Z M452.472,99.975 L452.472,78.472 C452.472,63.927 441.357,60.292 434.815,60.292 C430.138,60.292 426.189,62.058 422.242,64.758 L422.031,64.654 L422.031,60.913 L412.061,60.913 L412.061,99.975 L422.863,99.975 L422.863,68.501 C426.084,65.692 429.203,64.549 431.902,64.549 C437.617,64.549 441.564,70.057 441.564,76.081 L441.564,99.975 L452.472,99.975 Z M261.155,99.975 L265.728,99.975 L288.583,47.512 L282.66,47.512 L266.765,84.394 L251.078,47.512 L237.99,47.512 L261.155,99.975 Z M190.682,100.808 C195.772,100.808 199.928,99.042 203.667,96.131 L203.875,96.237 L203.875,99.975 L213.848,99.975 L213.848,40.239 L203.043,40.239 L203.043,64.033 C200.031,61.746 195.461,60.292 190.786,60.292 C184.864,60.292 170.736,63.927 170.736,81.07 C170.736,93.848 181.955,100.808 190.682,100.808 L190.682,100.808 Z M308.188,71.617 C307.15,86.473 328.967,82.94 328.344,91.979 C328.03,95.611 324.914,96.862 321.591,96.756 C316.187,96.338 312.864,93.222 309.955,89.794 L306.736,96.962 C311.095,99.457 315.875,100.704 320.031,101.015 C329.382,101.637 337.28,97.583 337.795,88.549 C338.73,74.526 316.187,76.29 316.604,69.123 C316.813,66.005 320.341,64.449 323.978,64.654 C327.72,64.965 330.629,67.043 333.848,69.953 L336.759,63.511 C332.707,61.746 328.863,60.913 325.435,60.602 C315.358,59.98 308.605,65.278 308.188,71.617 L308.188,71.617 Z M297.412,43.255 C294.189,43.255 291.697,45.75 291.697,48.97 C291.697,52.187 294.189,54.682 297.412,54.682 C300.633,54.682 303.125,52.187 303.125,48.97 C303.125,45.75 300.633,43.255 297.412,43.255 Z M290.661,99.976 L301.464,99.976 L301.464,60.913 L290.661,60.913 L290.661,99.976 Z M72.201,80.448 C72.201,91.355 80.302,100.394 93.394,100.394 C106.482,100.394 114.586,91.355 114.586,80.448 C114.586,69.539 106.482,60.5 93.394,60.5 C80.302,60.5 72.201,69.539 72.201,80.448 L72.201,80.448 Z M153.931,99.975 L164.736,99.975 L164.736,40.239 L153.931,40.239 L153.931,99.975 Z M121.002,60.913 L121.002,99.975 L131.803,99.975 L131.803,68.186 C135.442,65.071 138.038,66.109 145.207,72.032 L149.57,62.265 C147.388,61.331 144.583,60.292 140.531,60.292 C136.48,60.292 133.466,62.265 132.013,64.033 L131.491,64.654 L131.388,64.549 L131.491,60.913 L121.002,60.913 Z" id="Shape" fill="#231F20" fill-rule="nonzero" mask="url(#mask-4)"></path>
                </g>
            </g>
            <g id="Group" transform="translate(344.000000, 51.000000)" fill="#231F20" fill-rule="nonzero">
                <polygon id="Path" points="0.796 56.976 11.599 56.976 11.599 17.913 0.796 17.913"></polygon>
                <path d="M6.547,0.255 C3.324,0.255 0.832,2.75 0.832,5.97 C0.832,9.187 3.324,11.682 6.547,11.682 C9.768,11.682 12.26,9.187 12.26,5.97 C12.26,2.75 9.768,0.255 6.547,0.255" id="Path"></path>
            </g>
        </g>
    </g>
</svg>
